humanity-icon-theme/Humanity/actions/48/window-close.svg

<?xml version="1.0" encoding="UTF-8" standalone="no"?>
<!-- Created with Inkscape (http://www.inkscape.org/) -->

<svg
   xmlns:svg="http://www.w3.org/2000/svg"
   xmlns="http://www.w3.org/2000/svg"
   xmlns:xlink="http://www.w3.org/1999/xlink"
   version="1.1"
   width="48"
   height="48"
   id="svg2405">
  <defs
     id="defs2407">
    <linearGradient
       id="linearGradient2091">
      <stop
         id="stop2093"
         style="stop-color:black;stop-opacity:1"
         offset="0" />
      <stop
         id="stop2095"
         style="stop-color:black;stop-opacity:0"
         offset="1" />
    </linearGradient>
    <radialGradient
       cx="23.070683"
       cy="35.127438"
       r="10.31934"
       fx="23.070683"
       fy="35.127438"
       id="radialGradient2177"
       xlink:href="#linearGradient2091"
       gradientUnits="userSpaceOnUse"
       gradientTransform="matrix(0.914812,0.01265023,-0.00821502,0.213562,2.253914,27.18889)" />
    <linearGradient
       id="linearGradient7916">
      <stop
         id="stop7918"
         style="stop-color:white;stop-opacity:1"
         offset="0" />
      <stop
         id="stop7920"
         style="stop-color:white;stop-opacity:0.34020618"
         offset="1" />
    </linearGradient>
    <linearGradient
       x1="31.864639"
       y1="17.130236"
       x2="16.14513"
       y2="32.849743"
       id="linearGradient2181"
       xlink:href="#linearGradient7916"
       gradientUnits="userSpaceOnUse"
       gradientTransform="matrix(1.0317991,-1.0287411,1.0317991,1.0287411,-26.552863,23.963668)" />
    <linearGradient
       id="linearGradient1322">
      <stop
         id="stop1324"
         style="stop-color:#b4b4b4;stop-opacity:1"
         offset="0" />
      <stop
         id="stop1326"
         style="stop-color:#505050;stop-opacity:1"
         offset="1" />
    </linearGradient>
    <linearGradient
       x1="49.882484"
       y1="30.701427"
       x2="34.162975"
       y2="46.420933"
       id="linearGradient2179"
       xlink:href="#linearGradient1322"
       gradientUnits="userSpaceOnUse"
       gradientTransform="matrix(1.0317991,-1.0287411,1.0317991,1.0287411,-59.146403,28.538123)" />
  </defs>
  <g
     id="layer1">
    <path
       d="m 33.278212,34.94062 a 10.31934,2.320194 0 1 1 -20.63868,0 10.31934,2.320194 0 1 1 20.63868,0 z"
       transform="matrix(2.3012055,0,0,1.9190478,-28.833071,-24.804743)"
       id="path1361"
       style="opacity:0.2557078;fill:url(#radialGradient2177);fill-opacity:1;stroke:none" />
    <path
       d="M 41.892473,35.010753 31.5,24.993816 41.5,14.5 34.291383,8 24,18 13.5,8 6,14.739081 16.5,24.951073 6,35 13.5,42 23.987815,31.5 34.5,42 41.892473,35.010753 z"
       id="text1314"
       style="font-size:59.90107727px;font-style:normal;font-variant:normal;font-weight:bold;font-stretch:normal;text-align:start;line-height:125%;writing-mode:lr-tb;text-anchor:start;fill:#555753;fill-opacity:1;stroke:#4d4d4d;stroke-width:0.98169869;stroke-linecap:butt;stroke-linejoin:round;stroke-miterlimit:4;stroke-opacity:1;stroke-dasharray:none;font-family:Bitstream Vera Sans" />
    <path
       d="M 40.5,35 30,25 40,14.5 34.29224,9.5414417 24,19.5 13.5,9.5 7.5,15 18,24.944661 7.5,35 13.5,40.5 24,30 34.5,40.5 40.5,35 z"
       id="path7076"
       style="font-size:59.90107727px;font-style:normal;font-variant:normal;font-weight:bold;font-stretch:normal;text-align:start;line-height:125%;writing-mode:lr-tb;text-anchor:start;opacity:0.40860213;fill:url(#linearGradient2179);fill-opacity:1;stroke:url(#linearGradient2181);stroke-width:0.98169869;stroke-linecap:butt;stroke-linejoin:round;stroke-miterlimit:4;stroke-opacity:1;stroke-dasharray:none;font-family:Bitstream Vera Sans" />
  </g>
</svg>

<?xml version="1.0" encoding="UTF-8" standalone="no"?>
<!-- Created with Inkscape (http://www.inkscape.org/) -->
<svg id="svg2405" xmlns="http://www.w3.org/2000/svg" height="48" width="48" version="1.1" xmlns:xlink="http://www.w3.org/1999/xlink">
 <defs id="defs2407">
  <radialGradient id="radialGradient2177" gradientUnits="userSpaceOnUse" cy="35.127" cx="23.071" gradientTransform="matrix(.91481 .012650 -.0082150 .21356 2.2539 27.189)" r="10.319">
   <stop id="stop2093" offset="0"/>
   <stop id="stop2095" style="stop-opacity:0" offset="1"/>
  </radialGradient>
  <linearGradient id="linearGradient2181" y2="32.85" gradientUnits="userSpaceOnUse" x2="16.145" gradientTransform="matrix(1.0318 -1.0287 1.0318 1.0287 -26.553 23.964)" y1="17.13" x1="31.865">
   <stop id="stop7918" style="stop-color:#fff" offset="0"/>
   <stop id="stop7920" style="stop-color:#fff;stop-opacity:.34021" offset="1"/>
  </linearGradient>
  <linearGradient id="linearGradient2179" y2="46.421" gradientUnits="userSpaceOnUse" x2="34.163" gradientTransform="matrix(1.0318 -1.0287 1.0318 1.0287 -59.146 28.538)" y1="30.701" x1="49.882">
   <stop id="stop1324" style="stop-color:#b4b4b4" offset="0"/>
   <stop id="stop1326" style="stop-color:#505050" offset="1"/>
  </linearGradient>
 </defs>
 <g id="layer1">
  <path id="path1361" style="opacity:.25571;fill:url(#radialGradient2177)" d="m33.278 34.941a10.319 2.3202 0 1 1 -20.639 0 10.319 2.3202 0 1 1 20.639 0z" transform="matrix(2.3012 0 0 1.919 -28.833 -24.805)"/>
  <path id="text1314" style="stroke-linejoin:round;stroke:#4d4d4d;stroke-width:.98170;fill:#555753" d="m41.892 35.011-10.392-10.017 10-10.494-7.209-6.5-10.291 10-10.5-10-7.5 6.739 10.5 10.212-10.5 10.049 7.5 7 10.488-10.5 10.512 10.5 7.392-6.989z"/>
  <path id="path7076" style="opacity:.40860;stroke-linejoin:round;stroke:url(#linearGradient2181);stroke-width:.98170;fill:url(#linearGradient2179)" d="m40.5 35-10.5-10 10-10.5-5.708-4.9586-10.292 9.9586-10.5-10-6 5.5 10.5 9.945-10.5 10.055 6 5.5 10.5-10.5 10.5 10.5 6-5.5z"/>
 </g>
</svg>
